src/bright/hiso font bright_g.svg

<svg xmlns="http://www.w3.org/2000/svg" width="90" height="126" viewBox="0 0 90 126"><path fill="#000101" d="M36 45l36-18-36-18-36 18v72l36 18 36-18v-36l-36-18zm29.29 18l-11.29 5.65-18-9v-11.3l29.29 14.65zm-29.29 50.65v-30.97l30.98 15.48-30.98 15.49zm33-17.82l-33-16.5v-16.33l18 9 15-7.5v31.33z"/></svg>

<svg xmlns="http://www.w3.org/2000/svg" width="90" height="126"><path fill="#000101" d="M36 45l36-18L36 9 0 27v72l36 18 36-18V63L36 45zm29.29 18L54 68.65l-18-9v-11.3L65.29 63zM36 113.65V82.68l30.98 15.48L36 113.65zm33-17.82l-33-16.5V63l18 9 15-7.5v31.33z"/></svg>
